icons/svg/led-variant-on.svg

<svg xmlns="http://www.w3.org/2000/svg" version="1.1" baseProfile="full" width="24" height="24" viewBox="0 0 24.00 24.00" xml:space="preserve"><path fill="#000" fill-opacity="1" stroke-width="1.333" stroke-linejoin="miter" d="M12 3C9.79 3 8 4.79 8 7v6H6v2h3v6h2v-6h2v6h2v-6h3v-2h-2V7c0-2.21-1.79-4-4-4z"/></svg>

﻿<?xml version="1.0" encoding="utf-8"?>
<!DOCTYPE svg PUBLIC "-//W3C//DTD SVG 1.1//EN" "http://www.w3.org/Graphics/SVG/1.1/DTD/svg11.dtd">
<svg xmlns="http://www.w3.org/2000/svg" xmlns:xlink="http://www.w3.org/1999/xlink" version="1.1" baseProfile="full" width="24" height="24" viewBox="0 0 24.00 24.00" enable-background="new 0 0 24.00 24.00" xml:space="preserve">
	<path fill="#000000" fill-opacity="1" stroke-width="1.33333" stroke-linejoin="miter" d="M 12,3C 9.79086,3 8,4.7909 8,7L 8,13L 6,13L 6,15L 9,15L 9,21L 11,21L 11,15L 13,15L 13,21L 15,21L 15,15L 18,15L 18,13L 16,13L 16,7C 16,4.7909 14.2091,3 12,3 Z "/>
</svg>
